X: 10981
T: FAREWELL TO WHISKY
Q: "Slow"
%R: reel, air
B: "Edinburgh Repository of Music" v.1 p.98 #1
F: http://digital.nls.uk/special-collections-of-printed-music/pageturner.cfm?id=87776133
Z: 2015 John Chambers <jc:trillian.mit.edu>
M: C
L: 1/16
K: D
F2 |\
D4 dcdf e2B2 ~B3d | D3d {f}edef a2f2~f3a |\
b2(c'd') (bagf) (gfed) (e2f2) | D3d (fe.d).e f2d2d2 :|
b2 |\
{b}a3fd'3f (gfe)d ~e2f2 | a2f2d'3f a2d'2(d'3a) |\
b2d'2 {b}a3f (gf)(ed) (e2f2) | D3d (fe.d).e f2d2d2b2 |
{b}a3f{f}d'2f2 (gf)(ed) e2f2 | a2f2d'3f a2d'2(d'3a) |\
b2d'2~f3a (gf)(ed) e2f2 | D3d (fe.d).e {de}f2d2d2 |]

%%sep 2 1 500
%%sep 1 1 500

